source/img/sprite/mf-1.svg

<svg width="19" height="44" viewBox="0 0 19 44" fill="none" xmlns="http://www.w3.org/2000/svg">
<path d="M13.9 27.4C13.8 27.4 13.8 27.3 13.7 27.2C13.3 26.8 12.7 26.9 12.3 27.3C11.9 27.7 12 28.3 12.4 28.7C12.5 28.8 12.7 28.9 12.8 29C14.8 30.3 16 32.5 16 34.9C16 36.9 15.1 38.8 13.7 40.1C12.2 41.4 10.2 42.1 8.19999 41.8C5.09999 41.4 2.49999 38.9 2.09999 35.8C1.79999 33.1 2.99998 30.5 5.29998 29C6.39998 28.3 7.09999 27 7.09999 25.6V4C7.09999 2.9 7.99999 2 9.09999 2C10.2 2 11.1 2.9 11.1 4V24C11.1 24.6 11.5 25 12.1 25H16.1C16.7 25 17.1 24.6 17.1 24C17.1 23.4 16.7 23 16.1 23H13.1V21H14.1C14.7 21 15.1 20.6 15.1 20C15.1 19.4 14.7 19 14.1 19H13.1V17H16.1C16.7 17 17.1 16.6 17.1 16C17.1 15.4 16.7 15 16.1 15H13.1V13H14.1C14.7 13 15.1 12.6 15.1 12C15.1 11.4 14.7 11 14.1 11H13.1V9H16.1C16.7 9 17.1 8.6 17.1 8C17.1 7.4 16.7 7 16.1 7H13.1V4C13.1 1.8 11.3 0 9.09999 0C6.89999 0 5.09999 1.8 5.09999 4V25.8C5.09999 26.5 4.79998 27.1 4.29998 27.5C1.29998 29.4 -0.200015 32.8 0.199985 36.3C0.699985 40.3 3.99999 43.6 8.09999 44.1C8.39999 44.1 8.79998 44.2 9.09999 44.2C11.3 44.2 13.5 43.4 15.1 41.9C17 40.2 18.1 37.7 18.1 35.2C18 31.9 16.5 29.1 13.9 27.4Z" fill="url(#paint0_linear)"/>
<path d="M9 21C8.4 21 8 21.4 8 22V30.1C5.7 30.6 4 32.6 4 35C4 37.8 6.2 40 9 40C11.8 40 14 37.8 14 35C14 32.6 12.3 30.6 10 30.1V22C10 21.4 9.6 21 9 21ZM12 35C12 36.7 10.7 38 9 38C7.3 38 6 36.7 6 35C6 33.3 7.3 32 9 32C10.7 32 12 33.3 12 35Z" fill="url(#paint1_linear)"/>
<defs>
<linearGradient id="paint0_linear" x1="18.1" y1="44.2" x2="-0.739762" y2="43.8234" gradientUnits="userSpaceOnUse">
<stop stop-color="#2CA824"/>
<stop offset="1" stop-color="#45CF3C"/>
</linearGradient>
<linearGradient id="paint1_linear" x1="14" y1="40" x2="3.51512" y2="39.7285" gradientUnits="userSpaceOnUse">
<stop stop-color="#2CA824"/>
<stop offset="1" stop-color="#45CF3C"/>
</linearGradient>
</defs>
</svg>

<svg width="19" height="44" fill="none">
  <path d="M13.9 27.4l-.2-.2c-.4-.4-1-.3-1.4.1-.4.4-.3 1 .1 1.4l.4.3a7 7 0 01.9 11.1 6.9 6.9 0 01-5.5 1.7 7.1 7.1 0 01-6.1-6c-.3-2.7.9-5.3 3.2-6.8a4 4 0 001.8-3.4V4c0-1.1.9-2 2-2a2 2 0 012 2v20c0 .6.4 1 1 1h4c.6 0 1-.4 1-1s-.4-1-1-1h-3v-2h1c.6 0 1-.4 1-1s-.4-1-1-1h-1v-2h3c.6 0 1-.4 1-1s-.4-1-1-1h-3v-2h1c.6 0 1-.4 1-1s-.4-1-1-1h-1V9h3c.6 0 1-.4 1-1s-.4-1-1-1h-3V4a4 4 0 00-4-4 4 4 0 00-4 4v21.8c0 .7-.3 1.3-.8 1.7a9 9 0 003.8 16.6l1 .1c2.2 0 4.4-.8 6-2.3 1.9-1.7 3-4.2 3-6.7a9.4 9.4 0 00-4.2-7.8z" fill="url(#paint0_linear)"/>
  <path d="M9 21c-.6 0-1 .4-1 1v8.1A5 5 0 004 35a5 5 0 005 5 5 5 0 005-5 5 5 0 00-4-4.9V22c0-.6-.4-1-1-1zm3 14a3 3 0 01-3 3 3 3 0 01-3-3 3 3 0 013-3 3 3 0 013 3z" fill="url(#paint1_linear)"/>
  <defs>
    <linearGradient id="paint0_linear" x1="18.1" y1="44.2" x2="-.7" y2="43.8" gradientUnits="userSpaceOnUse">
      <stop offset="0" stop-color="#2CA824"/>
      <stop offset="1" stop-color="#45CF3C"/>
    </linearGradient>
    <linearGradient id="paint1_linear" x1="14" y1="40" x2="3.5" y2="39.7" gradientUnits="userSpaceOnUse">
      <stop offset="0" stop-color="#2CA824"/>
      <stop offset="1" stop-color="#45CF3C"/>
    </linearGradient>
  </defs>
</svg>
